X:1
T:The Love That Seeks
T:The Love That Seeks
T:Thomas Curtis Clark
T:Thomas Curtis Clark, 1908
T:Public Domain Courtesy of the Cyber Hymnal™
T:Public Domain Courtesy of the Cyber Hymnal™
C:Thomas Curtis Clark
Z:Public Domain
Z:Courtesy of the Cyber Hymnal™
%%score ( 1 2 ) ( 3 4 )
L:1/8
Q:1/4=100
M:4/4
K:Ab
V:1 treble 
V:2 treble 
V:3 bass 
V:4 bass 
V:1
"^Duet" [CE]2 | [CE]3 [CE] [=B,=D][CE] [_DF]>[CE] | [CA]6 [CA]2 | [DG]3 [DF] [B,D][FA] [EG]>[DF] | %4
w: 1.~I|wan- dered once in sin’s dark|night, Nor|would to God be re- con-|
w: 2.~When-|e’er I go from Him a-|stray, To|steep my soul in sin’s dark|
w: 3.~He|prom- ised He would be my|stay, When|death shall bid my soul to|
 [CE]6 [CE]2 | [CE]3 [CE] [=B,=D][CE] [_DF]>[CE] | [CA]6 [Ec]2 | [=DB]3 [CA] [B,G]2 [A,F]2 | %8
w: ciled; He|led me to His glor- ious|light, And|loved me as His|
w: stain, He|seeks me out by night and|day, And|brings me home a-|
w: come; My|head up- on His arm I’ll|lay, Till|I am safe at|
 [G,E]4- [G,E] ||"^Refrain" [Ac][GB][Ac] | [Ge]4- [Ge][Fd][Ec][DB] | [CE]4- [CE][CA][B,G][CA] | %12
w: child. *||||
w: gain. *|My Fa- ther|loves * His err- ing|child, * And guards me|
w: home. *||||
 [DB]4- [DB][Fd][Ec][=D=B] | [Ec]4- [Ec][Ac][GB][Ac] | [Ge]4- [Ge][Fd][Ec][DB] | %15
w: |||
w: when * the storm is|wild; * There’s naught can|move * me from His|
w: |||
 [CA]4- [CA]"^riten."[FA][EG][DF] | [CE] [Ec]3 c3 (z B) | [CA]6 |] %18
w: |||
w: love: * Wher- e’er I|wan- der I’m *||
w: |||
V:2
 x2 | x8 | x8 | x8 | x8 | x8 | x8 | x8 | x5 || x3 | x8 | x8 | x8 | x8 | x8 | x8 | x4 =D2 _D2 x | %17
 x6 |] %18
V:3
 z2 | A,,2 [E,A,]2 [E,A,]2 [E,A,]2 | A,,2 [E,A,]2 [E,A,]2 z2 | B,,2 [E,B,]2 E,,2 [E,B,]2 | %4
 A,,2 [E,A,]2 [E,A,]2 z2 | A,,2 [E,A,]2 [E,A,]2 [E,A,]2 | A,,2 [E,A,]2 [E,A,]2 z2 | %7
 z2 F,2 z2 =D,2 | [E,,E,]4- [E,,E,] || z3 | z [E,B,][G,B,]B, [E,B,] z3 | %11
 z [A,,A,][C,A,][E,A,] A, z3 | z [E,G,][G,B,]B, [E,B,] z3 | z [A,,A,][C,A,][E,A,] A, z3 | %14
 z [E,B,][G,B,]B, [E,B,][E,B,][E,G,][=E,G,] | [F,A,]4- [F,A,][D,A,][D,A,][D,A,] | %16
 [E,A,] [E,A,]3 [B,,A,]2 [E,G,]2 x | [A,,E,]6 |] %18
V:4
 x2 | x8 | x8 | x8 | x8 | x8 | x8 | B,,4 B,,4 | x5 || x3 | x3 B, x4 | x4 A, x3 | x3 B, x4 | %13
 x4 A, x3 | x3 B, x4 | x8 | x9 | x6 |] %18

